COLOR/action 16/16/hint.svg

<svg height="16" width="16" xmlns="http://www.w3.org/2000/svg"><circle cx="8" cy="8.00002" fill="#1a7fd4" r="7.99998" stroke-width="1.066664"/><path d="m8.8713832 5.1237494q0 1.4646117-.1046152 2.6670704-.1046152 1.1852278-.2609225 2.3704572h-1.0116896q-.1563073-1.1852294-.2609224-2.3704572-.1046151-1.2024587-.1046151-2.6670704v-3.2775302h1.7427648zm.2966146 7.8621336q0 .470153-.3138453.819691-.3126147.348306-.8541518.348306-.541537 0-.8541516-.348306-.3138454-.349538-.3138454-.819691 0-.470153.3138454-.81969.3138454-.348307.8541516-.348307.5415371 0 .8541518.348307.3138453.349537.3138453.81969z" fill="#fff" stroke-width="1.230766"/><g stroke-width="1.066664"><path d="m8 .00004053a7.9999797 7.9999797 0 0 0 -7.99997973 7.99997977 7.9999797 7.9999797 0 0 0 .01041663.3062492 7.9999797 7.9999797 0 0 1 7.9895631-7.77289698 7.9999797 7.9999797 0 0 1 7.989563 7.69373048 7.9999797 7.9999797 0 0 0 .010417-.2270827 7.9999797 7.9999797 0 0 0 -7.99998-7.99997977z" fill="#fff" opacity=".3"/><path d="m8.0000203 16a7.9999797 7.9999797 0 0 0 7.9999797-7.9999794 7.9999797 7.9999797 0 0 0 -.010453-.3062499 7.9999797 7.9999797 0 0 1 -7.989563 7.7728973 7.9999797 7.9999797 0 0 1 -7.98956269-7.6937306 7.9999797 7.9999797 0 0 0 -.01042131.2270832 7.9999797 7.9999797 0 0 0 7.9999797 7.9999794z" opacity=".2"/></g></svg>

<?xml version="1.0" encoding="UTF-8" standalone="no"?>
<svg
   xmlns:dc="http://purl.org/dc/elements/1.1/"
   xmlns:cc="http://creativecommons.org/ns#"
   xmlns:rdf="http://www.w3.org/1999/02/22-rdf-syntax-ns#"
   xmlns:svg="http://www.w3.org/2000/svg"
   xmlns="http://www.w3.org/2000/svg"
   xmlns:sodipodi="http://sodipodi.sourceforge.net/DTD/sodipodi-0.dtd"
   xmlns:inkscape="http://www.inkscape.org/namespaces/inkscape"
   height="16"
   width="16"
   version="1.1"
   id="svg10"
   sodipodi:docname="hint.svg"
   inkscape:version="0.92.4 (5da689c313, 2019-01-14)">
  <metadata
     id="metadata16">
    <rdf:RDF>
      <cc:Work
         rdf:about="">
        <dc:format>image/svg+xml</dc:format>
        <dc:type
           rdf:resource="http://purl.org/dc/dcmitype/StillImage" />
      </cc:Work>
    </rdf:RDF>
  </metadata>
  <defs
     id="defs14" />
  <sodipodi:namedview
     pagecolor="#ffffff"
     bordercolor="#666666"
     borderopacity="1"
     objecttolerance="10"
     gridtolerance="10"
     guidetolerance="10"
     inkscape:pageopacity="0"
     inkscape:pageshadow="2"
     inkscape:window-width="798"
     inkscape:window-height="480"
     id="namedview12"
     showgrid="false"
     inkscape:zoom="14.75"
     inkscape:cx="8"
     inkscape:cy="8"
     inkscape:window-x="0"
     inkscape:window-y="27"
     inkscape:window-maximized="0"
     inkscape:current-layer="svg10" />
  <circle
     cx="8"
     cy="8.00002"
     r="7.9999795"
     id="circle2"
     style="fill:#1a7fd4;stroke-width:1.06666398" />
  <path
     d="m 8.8713832,5.1237494 q 0,1.4646117 -0.1046152,2.6670704 Q 8.6621528,8.9760476 8.5058455,10.161277 H 7.4941559 Q 7.3378486,8.9760476 7.2332335,7.7908198 7.1286184,6.5883611 7.1286184,5.1237494 V 1.8462192 h 1.7427648 z m 0.2966146,7.8621336 q 0,0.470153 -0.3138453,0.819691 -0.3126147,0.348306 -0.8541518,0.348306 -0.541537,0 -0.8541516,-0.348306 -0.3138454,-0.349538 -0.3138454,-0.819691 0,-0.470153 0.3138454,-0.81969 0.3138454,-0.348307 0.8541516,-0.348307 0.5415371,0 0.8541518,0.348307 0.3138453,0.349537 0.3138453,0.81969 z"
     id="path4"
     inkscape:connector-curvature="0"
     style="fill:#ffffff;stroke-width:1.23076594" />
  <path
     d="M 8,4.053e-5 A 7.9999797,7.9999797 0 0 0 2.027e-5,8.0000203 7.9999797,7.9999797 0 0 0 0.0104369,8.3062695 7.9999797,7.9999797 0 0 1 8,0.53337252 7.9999797,7.9999797 0 0 1 15.989563,8.227103 7.9999797,7.9999797 0 0 0 15.99998,8.0000203 7.9999797,7.9999797 0 0 0 8,4.053e-5 Z"
     id="path6"
     inkscape:connector-curvature="0"
     style="opacity:0.3;fill:#ffffff;stroke-width:1.06666398" />
  <path
     d="M 8.0000203,16 A 7.9999797,7.9999797 0 0 0 16,8.0000206 7.9999797,7.9999797 0 0 0 15.989547,7.6937707 7.9999797,7.9999797 0 0 1 7.999984,15.466668 7.9999797,7.9999797 0 0 1 0.01042131,7.7729374 7.9999797,7.9999797 0 0 0 0,8.0000206 7.9999797,7.9999797 0 0 0 7.9999797,16 Z"
     id="path8"
     inkscape:connector-curvature="0"
     style="opacity:0.2;stroke-width:1.06666398" />
</svg>
